X:1
T:The Wedding Gift
R:waltz
M:3/4
L:1/8
K:D
A2|D4 DA|FA3 cA|d4 cA|BG3 GB|
|D4 DA|FA3 cA|dB G2 F/G/F|E4 EA|
|D4 DA|FA3 cA|d4 cA|B/c/d z2 B/d/B|
|AF D2 DA|BG d2 F/G/F|E4 ED|D4 DA|
|f2 d2 A2|e4 cA|d4 cA|BG4 e|
|f2 d2 A2|e4 cA|dB G2 F/G/F|E4 EA|
|f2 d2 A2|e4 cA|d4 cA|B/c/d z2 B/d/B|
|AF D2 DA|BG d2 F/G/F|E4 ED|D4 A2|